!!!COM: Stravinsky, Igor (Fyodorovich)
!!!OTL: Violin Concerto in D
!!!OMV: I: Toccata
!!!example: 391
!!!work: Str-31
**kern	**dynam	**kern	**dynam	**kern	**dynam	**kern	**dynam	**kern	**dynam	**kern	**dynam	**kern	**dynam	**kern	**dynam	**kern	**kern	**dynam	**kern	**kern	**dynam	**kern	**dynam	**kern	**dynam
*part14	*part14	*part13	*part13	*part12	*part12	*part11	*part11	*part10	*part10	*part9	*part9	*part8	*part8	*part7	*part7	*part6	*part5	*part5	*part4	*part3	*part3	*part2	*part2	*part1	*part1
*staff14	*	*staff13	*	*staff12	*	*staff11	*	*staff10	*	*staff9	*	*staff8	*	*staff7	*	*staff6	*staff5	*	*staff4	*staff3	*	*staff2	*	*staff1	*
*I"Contrabass	*	*I"Violoncello	*	*I"Violin	*	*I"Timpani	*	*I"Tuba	*	*I"Trombone	*	*I"Trumpet in C	*	*I"Trumpet in C	*	*I"Horn in F	*I"Clarinet in A	*	*I"Clarinet in Eb	*I"Cor Anglais	*	*I"Flute	*	*I"Piccolo	*
*I'Cb.	*	*I'Vc.	*	*I'Vln.	*	*I'Timp.	*	*I'Tba.	*	*I'Tbn.	*	*I'C Tpt.	*	*I'C Tpt.	*	*I'Hn.	*I'Cl.	*	*I'Eb Cl.	*I'C. A.	*	*I'Fl.	*	*I'Picc.	*
*clefF4	*	*clefF4	*	*clefG2	*	*clefF4	*	*clefF4	*	*clefF4	*	*clefG2	*	*clefG2	*	*clefG2	*clefG2	*	*clefG2	*clefG2	*	*clefG2	*	*clefG2	*
*k[f#c#]	*	*k[f#c#]	*	*k[f#c#]	*	*k[f#c#]	*	*k[f#c#]	*	*k[f#c#]	*	*k[f#c#]	*	*k[f#c#]	*	*	*k[f#c#]	*	*k[f#c#]	*k[f#c#]	*	*k[f#c#]	*	*k[f#c#]	*
*D:	*	*D:	*	*D:	*	*D:	*	*D:	*	*D:	*	*D:	*	*D:	*	*	*D:	*	*D:	*D:	*	*D:	*	*D:	*
*M2/4	*	*M2/4	*	*M2/4	*	*M2/4	*	*M2/4	*	*M2/4	*	*M2/4	*	*M2/4	*	*M2/4	*M2/4	*	*M2/4	*M2/4	*	*M2/4	*	*M2/4	*
*MM121	*	*MM121	*	*MM121	*	*MM121	*	*MM121	*	*MM121	*	*MM121	*	*MM121	*	*MM121	*MM121	*	*MM121	*MM121	*	*MM121	*	*MM121	*
=88	=88	=88	=88	=88	=88	=88	=88	=88	=88	=88	=88	=88	=88	=88	=88	=88	=88	=88	=88	=88	=88	=88	=88	=88	=88
.	.	.	.	(8qaa/ 8qeee	.	.	.	.	.	.	.	.	.	.	.	.	.	.	.	.	.	.	.	.	.
2r	.	2r	.	(8an) [8ee	.	2r	.	8AA'	mp	8r	.	8r	.	8r	.	2r	2r	.	16een'	2r	.	2r	.	2r	.
.	.	.	.	.	.	.	.	.	.	.	.	.	.	.	.	.	.	.	16r	.	.	.	.	.	.
.	.	.	.	8cc#) 8ee]	.	.	.	8r	.	8D' 8F#	mp	8cn'	mp	[8f#' [8ccn	mp	.	.	.	8r	.	.	.	.	.	.
.	.	.	.	8.f#L 8.dd	.	.	.	8r	.	8D' 8F#	.	8c'	.	8f#'] 8cc]	.	.	.	.	4r	.	.	.	.	.	.
.	.	.	.	.	.	.	.	8GG'	.	8r	.	8r	.	8r	.	.	.	.	.	.	.	.	.	.	.
.	.	.	.	16fff#Jk	.	.	.	.	.	.	.	.	.	.	.	.	.	.	.	.	.	.	.	.	.
=89	=89	=89	=89	=89	=89	=89	=89	=89	=89	=89	=89	=89	=89	=89	=89	=89	=89	=89	=89	=89	=89	=89	=89	=89	=89
2r	.	2r	.	(8dL [8cc#X	.	2r	.	8r	.	8D' 8B	.	8d'	.	[8b'L [8dd	.	2r	2r	.	2r	2r	.	2r	.	2r	.
.	.	.	.	8gJ) 8cc#]	.	.	.	8GG'	.	8r	.	8r	.	8b'J] 8dd]	.	.	.	.	.	.	.	.	.	.	.
.	.	.	.	(8.f#L 8.dd	.	.	.	8GG'	.	8r	.	8r	.	8r	.	.	.	.	.	.	.	.	.	.	.
.	.	.	.	.	.	.	.	8r	.	8D' 8B	.	8d'	.	[8b' [8dd	.	.	.	.	.	.	.	.	.	.	.
.	.	.	.	16fff#Jk)	.	.	.	.	.	.	.	.	.	.	.	.	.	.	.	.	.	.	.	.	.
=90	=90	=90	=90	=90	=90	=90	=90	=90	=90	=90	=90	=90	=90	=90	=90	=90	=90	=90	=90	=90	=90	=90	=90	=90	=90
2r	.	2r	.	(8.AL 8.a	.	2r	.	8FF#'	.	8r	.	8r	.	8b'] 8dd]	.	2r	2r	.	2r	2r	.	2r	.	2r	.
.	.	.	.	.	.	.	.	8r	.	8E' 8B	.	8d'	.	8r	.	.	.	.	.	.	.	.	.	.	.
.	.	.	.	16dddJk)	.	.	.	.	.	.	.	.	.	.	.	.	.	.	.	.	.	.	.	.	.
.	.	.	.	(8.GL 8.g	.	.	.	8r	.	8E' 8B	.	8d'	.	[8b'L [8dd	.	.	.	.	.	.	.	.	.	.	.
.	.	.	.	.	.	.	.	8FFn'	.	8r	.	8r	.	8b'J] 8dd]	.	.	.	.	.	.	.	.	.	.	.
.	.	.	.	16ggJk)	.	.	.	.	.	.	.	.	.	.	.	.	.	.	.	.	.	.	.	.	.
=91	=91	=91	=91	=91	=91	=91	=91	=91	=91	=91	=91	=91	=91	=91	=91	=91	=91	=91	=91	=91	=91	=91	=91	=91	=91
2r	.	2r	.	(16fnLL	mp	2r	.	8r	.	8D' 8B	.	8d'	.	8r	.	2r	2r	.	2r	2r	.	2r	.	2r	.
.	.	.	.	16e)	.	.	.	.	.	.	.	.	.	.	.	.	.	.	.	.	.	.	.	.	.
.	.	.	.	(16ccn	.	.	.	8EE'	.	8r	.	8r	.	[8b' [8dd	.	.	.	.	.	.	.	.	.	.	.
.	.	.	.	16bJJ)	.	.	.	.	.	.	.	.	.	.	.	.	.	.	.	.	.	.	.	.	.
.	.	.	.	(16ffnLL	.	.	.	8EE'	.	8r	.	8r	.	8b'] 8dd]	.	.	.	.	.	.	.	.	.	.	.
.	.	.	.	16ee)	.	.	.	.	.	.	.	.	.	.	.	.	.	.	.	.	.	.	.	.	.
.	.	.	.	(16fffn	.	.	.	8r	.	8D' 8B	.	8d'	.	8r	.	.	.	.	.	.	.	.	.	.	.
.	.	.	.	16eeeJJ)	.	.	.	.	.	.	.	.	.	.	.	.	.	.	.	.	.	.	.	.	.
=92	=92	=92	=92	=92	=92	=92	=92	=92	=92	=92	=92	=92	=92	=92	=92	=92	=92	=92	=92	=92	=92	=92	=92	=92	=92
*M3/4	*	*M3/4	*	*M3/4	*	*M3/4	*	*M3/4	*	*M3/4	*	*M3/4	*	*M3/4	*	*M3/4	*M3/4	*	*M3/4	*M3/4	*	*M3/4	*	*M3/4	*
2.r	.	2.r	.	(16fnLL	.	2.r	.	8EE'	.	8r	.	8r	.	[8b'L [8dd	.	2.r	2.r	.	2.r	2.r	.	2.r	.	2.r	.
.	.	.	.	16e)	.	.	.	.	.	.	.	.	.	.	.	.	.	.	.	.	.	.	.	.	.
.	.	.	.	(16ffn	.	.	.	8r	.	8D' 8B	.	8d'	.	8b'J] 8dd]	.	.	.	.	.	.	.	.	.	.	.
.	.	.	.	16eeJJ)	.	.	.	.	.	.	.	.	.	.	.	.	.	.	.	.	.	.	.	.	.
.	.	.	.	(16fffnLL	.	.	.	8r	.	8D' 8B	.	8d'	.	8r	.	.	.	.	.	.	.	.	.	.	.
.	.	.	.	16eee)	.	.	.	.	.	.	.	.	.	.	.	.	.	.	.	.	.	.	.	.	.
.	.	.	.	(16f	.	.	.	8FFn'	.	8r	.	8r	.	[8b' [8dd	.	.	.	.	.	.	.	.	.	.	.
.	.	.	.	16eJJ)	.	.	.	.	.	.	.	.	.	.	.	.	.	.	.	.	.	.	.	.	.
.	.	.	.	(16ffLL	.	.	.	8r	.	8D' 8B	.	8d'	.	8b'] 8dd]	.	.	.	.	.	.	.	.	.	.	.
.	.	.	.	16ee)	.	.	.	.	.	.	.	.	.	.	.	.	.	.	.	.	.	.	.	.	.
.	.	.	.	(16fff	.	.	.	8FF#X'	.	8r	.	8r	.	8r	.	.	.	.	.	.	.	.	.	.	.
.	.	.	.	16eeeJJ)	.	.	.	.	.	.	.	.	.	.	.	.	.	.	.	.	.	.	.	.	.
=93	=93	=93	=93	=93	=93	=93	=93	=93	=93	=93	=93	=93	=93	=93	=93	=93	=93	=93	=93	=93	=93	=93	=93	=93	=93
*M4/4	*	*M4/4	*	*M4/4	*	*M4/4	*	*M4/4	*	*M4/4	*	*M4/4	*	*M4/4	*	*M4/4	*M4/4	*	*M4/4	*M4/4	*	*M4/4	*	*M4/4	*
*	*	*	*	*8va	*	*	*	*	*	*	*	*	*	*	*	*	*	*	*	*	*	*	*	*	*
!	!	!LO:TX:a:t=pizz.	!	!	!	!	!	!	!	!	!	!	!	!	!	!	!	!	!	!	!	!	!	!	!
8r	.	4AA	mf	(16ccc#LL	.	4r	.	1r	.	8.c#L	mf	1r	.	1r	.	8c#X'L 8a	8.c#L	p	1r	8.c#L	p	1r	.	8.cccc#L	mf
.	.	.	.	16eeee)	.	.	.	.	.	.	.	.	.	.	.	.	.	.	.	.	.	.	.	.	.
(8AAA	mf	.	.	(16cccc#'	.	.	.	.	.	.	.	.	.	.	.	8c#'J 8a	.	.	.	.	.	.	.	.	.
.	.	.	.	16ccc#JJ)	.	.	.	.	.	16BJk	.	.	.	.	.	.	16BJk	.	.	16BJk	.	.	.	16bbbJk	.
8AA')	.	4r	.	(16ccc#LL	.	4AA	p	.	.	[4B	.	.	.	.	.	8r	[4B	.	.	[4B	.	.	.	[4bbb	.
.	.	.	.	16eeee)	.	.	.	.	.	.	.	.	.	.	.	.	.	.	.	.	.	.	.	.	.
8r	.	.	.	(16cccc#'	.	.	.	.	.	.	.	.	.	.	.	8c#' 8a	.	.	.	.	.	.	.	.	.
.	.	.	.	16ccc#JJ)	.	.	.	.	.	.	.	.	.	.	.	.	.	.	.	.	.	.	.	.	.
!LO:TX:a:t=pizz.	!	!	!	!	!	!	!	!	!	!	!	!	!	!	!	!	!	!	!	!	!	!	!	!	!
4AAA	.	4r	.	(16ccc#LL	.	2r	.	.	.	8BL]	.	.	.	.	.	8r	8BL]	.	.	8BL]	.	.	.	8bbbL]	.
.	.	.	.	16eeee)	.	.	.	.	.	.	.	.	.	.	.	.	.	.	.	.	.	.	.	.	.
.	.	.	.	(16cccc#'	.	.	.	.	.	[8AJ	.	.	.	.	.	8c#' 8a	[8AJ	.	.	[8AJ	.	.	.	[8aaaJ	.
.	.	.	.	16ccc#JJ)	.	.	.	.	.	.	.	.	.	.	.	.	.	.	.	.	.	.	.	.	.
8r	.	4AA	.	(16ccc#LL	.	.	.	.	.	8.AL]	.	.	.	.	.	8c#'L 8a	8.AL]	.	.	8.AL]	.	.	.	8.aaaL]	.
.	.	.	.	16eeee)	.	.	.	.	.	.	.	.	.	.	.	.	.	.	.	.	.	.	.	.	.
!LO:TX:a:t=arco	!	!	!	!	!	!	!	!	!	!	!	!	!	!	!	!	!	!	!	!	!	!	!	!	!
(8AAA	.	.	.	(16cccc#'	.	.	.	.	.	.	.	.	.	.	.	8c#'J 8a	.	.	.	.	.	.	.	.	.
.	.	.	.	16ccc#JJ)	.	.	.	.	.	16BJk	.	.	.	.	.	.	16BJk	.	.	16BJk	.	.	.	16bbbJk	.
=94	=94	=94	=94	=94	=94	=94	=94	=94	=94	=94	=94	=94	=94	=94	=94	=94	=94	=94	=94	=94	=94	=94	=94	=94	=94
8AA)	.	2r	.	(16ccc#LL	.	4AA	.	1r	.	[4B	.	1r	.	1r	.	8r	[4B	.	1r	[4B	.	4r	.	[4bbb	.
.	.	.	.	16eeee)	.	.	.	.	.	.	.	.	.	.	.	.	.	.	.	.	.	.	.	.	.
8r	.	.	.	(16cccc#'	.	.	.	.	.	.	.	.	.	.	.	8c#X' 8a	.	.	.	.	.	.	.	.	.
.	.	.	.	16ccc#JJ)	.	.	.	.	.	.	.	.	.	.	.	.	.	.	.	.	.	.	.	.	.
!LO:TX:a:t=pizz.	!	!	!	!	!	!	!	!	!	!	!	!	!	!	!	!	!	!	!	!	!	!	!	!	!
4AAA	.	.	.	(16ccc#LL	.	4r	.	.	.	8BL]	.	.	.	.	.	8r	8BL]	.	.	8BL]	.	8r	.	8bbbL]	.
.	.	.	.	16eeee)	.	.	.	.	.	.	.	.	.	.	.	.	.	.	.	.	.	.	.	.	.
*	*	*	*	*	*	*	*	*	*	*	*	*	*	*	*	*	*	*	*	*	*	*8va	*	*	*
.	.	.	.	(16cccc#'	.	.	.	.	.	[8AJ	.	.	.	.	.	8c#' 8a	[8AJ	.	.	[8AJ	.	[8aaa	mf	[8aaaJ	.
.	.	.	.	16ccc#JJ)	.	.	.	.	.	.	.	.	.	.	.	.	.	.	.	.	.	.	.	.	.
8r	.	4AA	.	(16ccc#LL	.	4r	.	.	.	8AL]	.	.	.	.	.	8c#'L 8a	8AL]	.	.	8AL]	.	8aaaL]	.	8aaaL]	.
.	.	.	.	16eeee)	.	.	.	.	.	.	.	.	.	.	.	.	.	.	.	.	.	.	.	.	.
!LO:TX:a:t=arco	!	!	!	!	!	!	!	!	!	!	!	!	!	!	!	!	!	!	!	!	!	!	!	!	!
(8AAA	.	.	.	(16cccc#'	.	.	.	.	.	([8E#X	.	.	.	.	.	8c#'J 8a	([8E#X	.	.	([8E#X	.	([8eee#X	.	([8eee#X	.
.	.	.	.	16ccc#JJ)	.	.	.	.	.	.	.	.	.	.	.	.	.	.	.	.	.	.	.	.	.
8AA)	.	4r	.	(16ccc#LL	.	4AA	.	.	.	8E#]	.	.	.	.	.	8r	8E#]	.	.	8E#]	.	8eee#]	.	8eee#]	.
.	.	.	.	16eeee)	.	.	.	.	.	.	.	.	.	.	.	.	.	.	.	.	.	.	.	.	.
*	*	*	*	*	*	*	*	*	*	*	*	*	*	*	*	*	*	*	*	*	*	*X8va	*	*	*
8r	.	.	.	(16cccc#'	.	.	.	.	.	8F#J)	.	.	.	.	.	8c#' 8a	8F#J)	.	.	8F#J)	.	8ff#J)	.	8fff#J)	.
.	.	.	.	16ccc#JJ)	.	.	.	.	.	.	.	.	.	.	.	.	.	.	.	.	.	.	.	.	.
=95	=95	=95	=95	=95	=95	=95	=95	=95	=95	=95	=95	=95	=95	=95	=95	=95	=95	=95	=95	=95	=95	=95	=95	=95	=95
!LO:TX:a:t=pizz.	!	!	!	!	!	!	!	!	!	!	!	!	!	!	!	!	!	!	!	!	!	!	!	!	!
4AAA	.	4r	.	(16ccc#LL	.	2r	.	1r	.	8.c#L	.	1r	.	1r	.	8r	8.c#L	.	1r	8.c#L	.	2r	.	8.cccc#L	.
.	.	.	.	16eeee)	.	.	.	.	.	.	.	.	.	.	.	.	.	.	.	.	.	.	.	.	.
.	.	.	.	(16cccc#'	.	.	.	.	.	.	.	.	.	.	.	8c#X' 8a	.	.	.	.	.	.	.	.	.
.	.	.	.	16ccc#JJ)	.	.	.	.	.	16BJk	.	.	.	.	.	.	16BJk	.	.	16BJk	.	.	.	16bbbJk	.
8r	.	4AA	.	(16ccc#LL	.	.	.	.	.	8.BL	.	.	.	.	.	8c#'L 8a	8.BL	.	.	8.BL	.	.	.	8.bbbL	.
.	.	.	.	16cccc#)	.	.	.	.	.	.	.	.	.	.	.	.	.	.	.	.	.	.	.	.	.
!LO:TX:a:t=arco	!	!	!	!	!	!	!	!	!	!	!	!	!	!	!	!	!	!	!	!	!	!	!	!	!
(8AAA	.	.	.	(16aaa'	.	.	.	.	.	.	.	.	.	.	.	8c#'J 8a	.	.	.	.	.	.	.	.	.
.	.	.	.	16aaJJ)	.	.	.	.	.	16AJk	.	.	.	.	.	.	16AJk	.	.	16AJk	.	.	.	16aaaJk	.
8AA)	.	2r	.	(16aaLL	.	4AA	.	.	.	8.AL	.	.	.	.	.	8r	8.AL	.	.	8.AL	.	4r	.	8.aaaL	.
.	.	.	.	16cccc#)	.	.	.	.	.	.	.	.	.	.	.	.	.	.	.	.	.	.	.	.	.
8r	.	.	.	(16aaa'	.	.	.	.	.	.	.	.	.	.	.	8c#' 8a	.	.	.	.	.	.	.	.	.
.	.	.	.	16aaJJ)	.	.	.	.	.	16GJk	.	.	.	.	.	.	16GJk	.	.	16GJk	.	.	.	16gggJk	.
!LO:TX:a:t=pizz.	!	!	!	!	!	!	!	!	!	!	!	!	!	!	!	!	!	!	!	!	!	!	!	!	!
4AAA	.	.	.	(16aaLL	.	4r	.	.	.	8.GL	.	.	.	.	.	8r	8.GL	.	.	8.GL	.	8.gggL	.	8.gggL	.
.	.	.	.	16aaa)	.	.	.	.	.	.	.	.	.	.	.	.	.	.	.	.	.	.	.	.	.
.	.	.	.	(16fff#'	.	.	.	.	.	.	.	.	.	.	.	8c#' 8a	.	.	.	.	.	.	.	.	.
*	*	*	*	*X8va	*	*	*	*	*	*	*	*	*	*	*	*	*	*	*	*	*	*	*	*	*
.	.	.	.	16f#JJ)	.	.	.	.	.	16F#Jk	.	.	.	.	.	.	16F#Jk	.	.	16F#Jk	.	16fff#Jk	.	16fff#Jk	.
=	=	=	=	=	=	=	=	=	=	=	=	=	=	=	=	=	=	=	=	=	=	=	=	=	=
*-	*-	*-	*-	*-	*-	*-	*-	*-	*-	*-	*-	*-	*-	*-	*-	*-	*-	*-	*-	*-	*-	*-	*-	*-	*-
!!!system-decoration: [(s1,s2,s3,s4,s5)][(s6,s7,s8,s9,s10)][(s11)][(s12,s13,s14)]
!!!CDT: 1882/06/17-1971/04/06
!!!CBL: Lomonosov (Oranienbaum), Russia
!!!CDL: New York, United States
!!!CNT: Russian, French, American
!!!AGN: Orchestral; Concerto
!!!MCN: Stravinsky, Igor
!!!MDT: 1931/10/23
!!!MGN: Berlin Radio Symphony Orchestra
!!!MLC: Berlin, Germany
!!!MPD: 1931
!!!MPN: Dushkin, Samuel
!!!ODT: 1931
!!!PDT: 1931
!!!excerpt-start-measure: 88
!!!excerpt-end-measure: 98
!!!excerpt-start-time: 1:57
!!!excerpt-end-time: 2:15
!!!EEV: 2020/01/25
!!!ONB: Converted from MusicXML on 2020/01/25
